X:348
T: LIEBES MAEDCHEN HOER MIR ZU
N: B0410
O: Europa, Mitteleuropa, Deutschland
R: Liebes - Lied, Liebes - Lust
M: 2/4
L: 1/8
K: D
 | FFAA | GGE2 |
FFGF | F2E2 |
FFAA | ^GGB2 |
cBAG | B2Az |
GGEE | AAF2 |
ddBB | c2Az |
FFAA | ddA2 |
Bedc | e2dz

@@@ Tune index: 2151
